X:337
%%etbk:tnset id:101,pos:3,rep:3x,ant:
%%etbk:tnset id:184,pos:1,rep:3x,ant:
%%etbk:wsite http://www.thesession.org/tunes/display/15
%%etbk:pldat 2016-06-23T19:24,2016-06-21T15:46,2016-05-05T14:25,2016-05-03T17:13,2016-03-11T16:41,2016-03-09T16:16,2016-03-08T16:25,2016-02-27T15:26,2015-11-04T16:48,2015-10-28T16:23,2015-10-26T18:03,2015-10-21T16:51,2015-10-07T16:00,2015-06-26T17:30,2015-05-26T18:23,2015-03-13T18:51,2015-03-10T17:08,2015-03-03T18:45,2015-02-10T17:31,2014-11-06T18:42,2014-11-04T17:13,2014-11-02T15:24,2014-10-29T15:59,2014-10-24T18:30,2014-08-20T19:09,2014-07-29T17:51,2014-06-24T18:53,2014-03-06T18:28,2014-03-03T19:03,2014-02-24T18:19,2014-01-22T17:01,2014-01-21T17:50,2014-01-19T14:07,2014-01-18T14:41,2014-01-14T18:36,2014-01-08T15:28,2013-12-29T13:33,2013-10-30T17:11,2013-10-29T16:27,2013-10-27T14:58,2013-10-16T16:33,2013-10-13T15:43,2013-09-12T18:19,2013-05-21T17:19,2013-05-20T15:39
T: Calliope House
Z: Piano Box Version by Martin Fleischmann
H: Created 2013-02-19 /  Last Modified 2013-05-20
M: 6/8
L: 1/8
R: jig
K: Dmaj
|: "D"!5!a2a !3!f!5!aa | !2!e!5!aa !1!def | "G"!4!g!3!g!4!g !3!fgf | "A"!2!e3 !4!e!3!d!2!B | 
"D"!1!ABA !1!A2!2!F | !1!A2!2!B !3!d2!4!e |1 !5!fAf fed | "A"!4!e2!2!e efg:|2 !3!faf "A"!2!efe | "D"!1!d3 !3!d!1!AB ||
|: "D"!3!d!1!AA !5!f!1!AA | !4!e!1!AA !5!fe!3!d | "A"!2!B!4!ee !4!e2!3!d | !4!ef!3!d !2!B2A | 
"D"!1!ABA !1!A2!2!F | !1!A2!2!B !3!d2e |1 !5!fAf fed | "A"!4!e2e e!3!d!2!B :|2 !3!faf "A"!2!ede | "D"!1!d6 ||


